X: 6
T: The Wren
R: reel
M: 4/4
L: 1/8
K: Bmin
|: B2 f2 f2 ef | g3 f e2 cd | e2 e2 efed |1 cB c2 d2 c2 :|2 cB c2 B4 |||: B2 B2 c2 d2 | B2 B2 c2 d2 | e2 e2 efed |1 cB c2 d2 c2 :|2 cB c2 B4 |||: B2 f2 f2 ef | g2 e2 edcd | eAce efed |1 c2 c2 dcBA :|2 c2 B2 BAFA |||: B3 A Bcdc | B2 B2 c3 d | eAce efed |1 c2 c2 dcBA :|2 c2 B2 B2 A2 |||: B2 f2 f2 ef | g3 f edcd | e2 c2 f2 ed |1 cdBc d3 c :|2 cdBc B4 |||: B2 B2 c2 dc | B3 B c2 cd | e2 c2 f2 ed |1 cdBc d3 c :|2 cBdc B4 ||


